icons/1_Primary/1login od WP.svg

<svg width="1024" height="1024" viewBox="0 0 1024 1024" fill="none" xmlns="http://www.w3.org/2000/svg">
<g clip-path="url(#clip0_2_4054)">
<path d="M512 1024C794.77 1024 1024 794.77 1024 512C1024 229.23 794.77 0 512 0C229.23 0 0 229.23 0 512C0 794.77 229.23 1024 512 1024Z" fill="#54688C"/>
<path d="M686.819 301.031C677.479 301.031 668.789 304.001 661.569 309.021C658.799 310.621 656.139 312.491 653.709 314.741L523.849 450.971C505.819 467.681 504.579 496.291 521.129 514.531C537.659 532.771 565.959 534.011 583.969 517.271L642.049 458.751V691.321C642.049 716.261 662.229 736.591 686.829 736.591C711.429 736.591 731.579 716.261 731.579 691.321V346.321C731.579 321.431 711.449 301.021 686.829 301.021M441.869 592.221C422.729 576.801 410.409 558.591 404.769 535.331C399.749 514.381 401.849 496.971 408.699 475.881C409.659 473.401 409.759 473.091 408.959 475.001C409.499 473.651 410.119 472.341 410.769 470.991C411.679 468.971 412.679 467.061 413.689 465.121C416.479 460.001 419.589 454.981 423.109 450.321C420.939 453.191 424.839 448.331 425.129 447.991C427.069 445.771 429.039 443.641 431.079 441.571C433.149 439.501 435.299 437.511 437.469 435.571C437.989 435.101 442.749 431.331 439.849 433.531C444.529 429.961 449.529 426.801 454.719 424.011C460.309 421.011 461.449 420.491 465.769 418.971C477.409 414.751 486.929 413.071 497.849 412.711C509.749 412.351 519.809 402.801 519.809 390.541C519.809 378.281 509.799 367.961 497.849 368.371C452.009 369.871 410.819 392.141 383.999 429.731C358.289 465.741 351.329 515.101 365.429 557.141C374.069 583.061 389.639 606.451 410.859 623.571C420.119 631.051 432.849 632.701 441.879 623.571C449.509 615.861 451.169 599.741 441.879 592.221M535.399 605.081C518.789 610.901 502.419 612.631 485.029 610.511C473.209 609.111 463.069 621.711 463.069 632.731C463.069 645.871 473.179 653.451 485.029 654.901C505.779 657.361 527.299 654.741 547.069 647.841C558.189 643.931 565.639 632.651 562.329 620.551C559.359 609.581 546.629 601.151 535.399 605.081ZM318.039 539.681C314.749 513.551 315.869 490.611 321.449 467.891C322.869 462.101 324.529 456.351 326.439 450.711C327.369 447.891 328.349 445.121 329.469 442.351L331.099 438.211C329.629 441.731 332.419 435.421 332.419 435.421C337.337 424.729 343.151 414.472 349.799 404.761C351.459 402.351 353.159 399.921 354.899 397.591C353.239 399.791 357.379 394.541 358.309 393.451C362.529 388.381 366.949 383.521 371.659 378.861C381.229 369.391 387.229 364.481 396.989 357.851C418.459 343.311 436.489 335.551 461.659 329.961C495.029 322.541 530.579 325.411 563.659 337.101C574.839 341.031 587.639 332.601 590.619 321.601C593.959 309.361 586.509 298.271 575.309 294.311C512.239 272.061 440.529 279.381 383.229 314.181C335.289 343.311 299.079 390.241 282.439 444.231C272.999 474.891 270.179 507.841 274.239 539.691C275.739 551.541 283.239 561.891 296.149 561.891C306.829 561.891 319.589 551.651 318.059 539.671M532.929 695.461C494.409 702.551 452.889 696.491 419.029 679.241C383.199 661.031 356.169 634.151 337.279 598.681C331.669 588.151 317.259 584.841 307.269 590.741C296.719 597.001 293.769 610.501 299.429 621.111C321.599 662.791 356.859 697.791 398.979 718.611C444.609 741.141 494.829 747.401 544.599 738.241C556.269 736.091 562.839 721.791 559.909 710.951C556.549 698.531 544.649 693.331 532.929 695.451" fill="white"/>
</g>
<defs>
<clipPath id="clip0_2_4054">
<rect width="1024" height="1024" fill="white"/>
</clipPath>
</defs>
</svg>

<svg xmlns="http://www.w3.org/2000/svg" width="1024" height="1024" fill="none">
   <g clip-path="url(#a)">
      <path fill="#54688C" d="M512 1024c282.77 0 512-229.23 512-512S794.77 0 512 0 0 229.23 0 512s229.23 512 512 512Z"/>
      <path fill="#fff" d="M686.819 301.031c-9.34 0-18.03 2.97-25.25 7.99-2.77 1.6-5.43 3.47-7.86 5.72l-129.86 136.23c-18.03 16.71-19.27 45.32-2.72 63.56 16.53 18.24 44.83 19.48 62.84 2.74l58.08-58.52v232.57c0 24.94 20.18 45.27 44.78 45.27s44.75-20.33 44.75-45.27v-345c0-24.89-20.13-45.3-44.75-45.3m-244.96 291.2c-19.14-15.42-31.46-33.63-37.1-56.89-5.02-20.95-2.92-38.36 3.93-59.45.96-2.48 1.06-2.79.26-.88.54-1.35 1.16-2.66 1.81-4.01.91-2.02 1.91-3.93 2.92-5.87 2.79-5.12 5.9-10.14 9.42-14.8-2.17 2.87 1.73-1.99 2.02-2.33 1.94-2.22 3.91-4.35 5.95-6.42 2.07-2.07 4.22-4.06 6.39-6 .52-.47 5.28-4.24 2.38-2.04 4.68-3.57 9.68-6.73 14.87-9.52 5.59-3 6.73-3.52 11.05-5.04 11.64-4.22 21.16-5.9 32.08-6.26 11.9-.36 21.96-9.91 21.96-22.17 0-12.26-10.01-22.58-21.96-22.17-45.84 1.5-87.03 23.77-113.85 61.36-25.71 36.01-32.67 85.37-18.57 127.41 8.64 25.92 24.21 49.31 45.43 66.43 9.26 7.48 21.99 9.13 31.02 0 7.63-7.71 9.29-23.83 0-31.35m93.52 12.86c-16.61 5.82-32.98 7.55-50.37 5.43-11.82-1.4-21.96 11.2-21.96 22.22 0 13.14 10.11 20.72 21.96 22.17 20.75 2.46 42.27-.16 62.04-7.06 11.12-3.91 18.57-15.19 15.26-27.29-2.97-10.97-15.7-19.4-26.93-15.47Zm-217.36-65.4c-3.29-26.13-2.17-49.07 3.41-71.79 1.42-5.79 3.08-11.54 4.99-17.18.93-2.82 1.91-5.59 3.03-8.36l1.63-4.14c-1.47 3.52 1.32-2.79 1.32-2.79a208.557 208.557 0 0 1 17.38-30.66c1.66-2.41 3.36-4.84 5.1-7.17-1.66 2.2 2.48-3.05 3.41-4.14 4.22-5.07 8.64-9.93 13.35-14.59 9.57-9.47 15.57-14.38 25.33-21.01 21.47-14.54 39.5-22.3 64.67-27.89 33.37-7.42 68.92-4.55 102 7.14 11.18 3.93 23.98-4.5 26.96-15.5 3.34-12.24-4.11-23.33-15.31-27.29-63.07-22.25-134.78-14.93-192.08 19.87-47.94 29.13-84.15 76.06-100.79 130.05-9.44 30.66-12.26 63.61-8.2 95.46 1.5 11.85 9 22.2 21.91 22.2 10.68 0 23.44-10.24 21.91-22.22m214.87 155.79c-38.52 7.09-80.04 1.03-113.9-16.22-35.83-18.21-62.86-45.09-81.75-80.56-5.61-10.53-20.02-13.84-30.01-7.94-10.55 6.26-13.5 19.76-7.84 30.37 22.17 41.68 57.43 76.68 99.55 97.5 45.63 22.53 95.85 28.79 145.62 19.63 11.67-2.15 18.24-16.45 15.31-27.29-3.36-12.42-15.26-17.62-26.98-15.5"/>
   </g>
   <defs>
      <clipPath id="a">
         <path fill="#fff" d="M0 0h1024v1024H0z"/>
      </clipPath>
   </defs>
</svg>
